assets/img/logout.svg

<svg width="18" height="18" viewBox="0 0 18 18" fill="none" xmlns="http://www.w3.org/2000/svg">
<path fill-rule="evenodd" clip-rule="evenodd" d="M8.48949 16.5H4.82499C2.99199 16.5 1.50024 15.0082 1.50024 13.1737V4.827C1.50024 2.9925 2.99199 1.5 4.82499 1.5H8.48124C10.3157 1.5 11.8082 2.9925 11.8082 4.827V5.526C11.8082 5.8365 11.5562 6.0885 11.2457 6.0885C10.9352 6.0885 10.6832 5.8365 10.6832 5.526V4.827C10.6832 3.612 9.69549 2.625 8.48124 2.625H4.82499C3.61224 2.625 2.62524 3.612 2.62524 4.827V13.1737C2.62524 14.388 3.61224 15.375 4.82499 15.375H8.48949C9.69849 15.375 10.6832 14.391 10.6832 13.182V12.4748C10.6832 12.1643 10.9352 11.9123 11.2457 11.9123C11.5562 11.9123 11.8082 12.1643 11.8082 12.4748V13.182C11.8082 15.012 10.3187 16.5 8.48949 16.5Z" fill="#130F26"/>
<mask id="mask0_1258_8175" style="mask-type:luminance" maskUnits="userSpaceOnUse" x="6" y="8" width="11" height="2">
<path fill-rule="evenodd" clip-rule="evenodd" d="M6.74707 8.4375H16.9027V9.5625H6.74707V8.4375Z" fill="white"/>
</mask>
<g mask="url(#mask0_1258_8175)">
<path fill-rule="evenodd" clip-rule="evenodd" d="M16.3403 9.5625H7.30957C6.99907 9.5625 6.74707 9.3105 6.74707 9C6.74707 8.6895 6.99907 8.4375 7.30957 8.4375H16.3403C16.6508 8.4375 16.9028 8.6895 16.9028 9C16.9028 9.3105 16.6508 9.5625 16.3403 9.5625Z" fill="#130F26"/>
</g>
<mask id="mask1_1258_8175" style="mask-type:luminance" maskUnits="userSpaceOnUse" x="13" y="6" width="4" height="6">
<path fill-rule="evenodd" clip-rule="evenodd" d="M13.5823 6.25146H16.9028V11.7495H13.5823V6.25146Z" fill="white"/>
</mask>
<g mask="url(#mask1_1258_8175)">
<path fill-rule="evenodd" clip-rule="evenodd" d="M14.1446 11.7495C14.0006 11.7495 13.8558 11.6948 13.7463 11.5838C13.5273 11.3633 13.5281 11.0078 13.7478 10.7888L15.5433 9.00003L13.7478 7.21203C13.5281 6.99303 13.5266 6.63753 13.7463 6.41703C13.9653 6.19653 14.3208 6.19653 14.5413 6.41553L16.7373 8.60178C16.8438 8.70678 16.9031 8.85078 16.9031 9.00003C16.9031 9.14928 16.8438 9.29328 16.7373 9.39828L14.5413 11.5853C14.4318 11.6948 14.2878 11.7495 14.1446 11.7495Z" fill="#130F26"/>
</g>
</svg>

<svg xmlns="http://www.w3.org/2000/svg" width="18" height="18" fill="none"><path fill="#130F26" fill-rule="evenodd" d="M8.49 16.5H4.824A3.33 3.33 0 0 1 1.5 13.174V4.827A3.33 3.33 0 0 1 4.825 1.5h3.656a3.33 3.33 0 0 1 3.327 3.327v.699a.563.563 0 0 1-1.125 0v-.699a2.204 2.204 0 0 0-2.202-2.202H4.825c-1.213 0-2.2.987-2.2 2.202v8.347c0 1.214.987 2.201 2.2 2.201h3.664a2.196 2.196 0 0 0 2.194-2.193v-.707a.563.563 0 0 1 1.125 0v.707c0 1.83-1.49 3.318-3.319 3.318" clip-rule="evenodd"/><mask id="a" width="11" height="2" x="6" y="8" maskUnits="userSpaceOnUse" style="mask-type:luminance"><path fill="#fff" fill-rule="evenodd" d="M6.747 8.438h10.156v1.124H6.747z" clip-rule="evenodd"/></mask><g mask="url(#a)"><path fill="#130F26" fill-rule="evenodd" d="M16.34 9.563H7.31a.563.563 0 0 1 0-1.126h9.03a.563.563 0 0 1 0 1.126" clip-rule="evenodd"/></g><mask id="b" width="4" height="6" x="13" y="6" maskUnits="userSpaceOnUse" style="mask-type:luminance"><path fill="#fff" fill-rule="evenodd" d="M13.582 6.251h3.32v5.498h-3.32z" clip-rule="evenodd"/></mask><g mask="url(#b)"><path fill="#130F26" fill-rule="evenodd" d="M14.145 11.75a.562.562 0 0 1-.397-.96l1.795-1.79-1.795-1.788a.562.562 0 1 1 .793-.796l2.196 2.186a.56.56 0 0 1 0 .796l-2.196 2.187a.56.56 0 0 1-.396.164" clip-rule="evenodd"/></g></svg>
